assets/Stuffed flatbread/High Contrast/stuffed_flatbread_high_contrast.svg

<svg width="32" height="32" viewBox="0 0 32 32" fill="none" xmlns="http://www.w3.org/2000/svg">
<g clip-path="url(#clip0_18_33557)">
<path d="M17 0C14.6177 0 12.2772 0.879438 10.5613 2.71022L9.81556 3.456C8.12059 3.45951 6.55609 4.21547 5.38577 5.38579C4.13605 6.63551 3.54245 8.20875 3.48916 9.7824L2.68577 10.5858C0.121684 13.1499 -0.607613 16.8373 0.503526 20.0398C1.17778 22.7615 2.61507 25.2435 4.68577 27.3142C10.9596 33.588 21.1361 33.6068 27.3271 27.3012C33.4746 21.0398 33.6116 10.9831 27.3142 4.68577C25.0704 2.44196 22.3446 0.943168 19.358 0.351652C18.6123 0.126757 17.8233 0 17 0ZM25.9 6.09999C31.4 11.6 31.3 20.4 25.9 25.9C20.5 31.4 11.6 31.4 6.09999 25.9C4.24646 24.0465 2.99416 21.8494 2.42268 19.4679C2.76898 20.427 3.32809 21.3281 4.09999 22.1C5.39999 23.4 7.19999 24.2 9.09999 24.2C11 24.2 12.8 23.5 14.1 22.1L22 14.2C23.3 12.9 24.1 11.1 24.1 9.2C24.1 7.3 23.4 5.5 22 4.2C21.0846 3.35003 20.041 2.67106 18.8972 2.30282L18.9 2.29999C21.5 2.79999 23.9 4.09999 25.9 6.09999ZM20 4.3L20.1397 4.43971C19.1451 4.20528 18.0869 4.32856 17.1826 4.82475C16.8351 4.74316 16.4727 4.70001 16.1 4.70001C13.7033 4.70001 11.7315 6.48441 11.4378 8.79999H9.99999C9.29999 8.79999 8.79999 9.29999 8.79999 9.99999V11.4378C6.4844 11.7315 4.69999 13.7033 4.69999 16.1C4.69999 16.5087 4.75188 16.905 4.84944 17.2828C4.39799 18.2241 4.30343 19.2962 4.58123 20.2779C2.85856 18.6962 2.86077 15.8577 4.29999 14.1C5.29999 13.1 5.69999 11.8 5.49999 10.4C5.39999 9.1 5.79999 7.8 6.79999 6.8C7.79999 5.8 9.09999 5.3 10.4 5.5C11.7 5.7 13.1 5.3 14.1 4.4C15.6641 2.83591 18.3598 2.94928 20 4.3ZM8.79999 14.4V18.1619C7.91444 19.2738 7.29581 20.6155 7.35271 22.0677C7.00862 21.9077 6.68506 21.6851 6.39999 21.4C5.62799 20.6874 5.31444 19.6574 5.45933 18.666C5.54605 18.0727 5.79695 17.4933 6.21204 17.004C6.27134 16.9341 6.33399 16.866 6.39999 16.8L8.79999 14.4ZM19.7439 9.0648C20.5901 8.69873 21.5572 8.37054 22.4908 8.52237C22.7118 10.2759 21.9283 11.9716 20.7099 13.1901L13 20.9C11.7 22.2 9.99999 22.7 8.39999 22.5C8.39197 22.4519 8.38491 22.4036 8.37881 22.3552C8.22115 21.1047 8.7263 20.0088 9.39999 19C10.3 18 10.7 16.7 10.5 15.3C10.4 14 10.8 12.7 11.7 11.8C12.7 10.8 14 10.4 15.2 10.6C15.4498 10.6192 15.7214 10.5963 16.0002 10.5456C16.9184 10.3788 17.914 9.91083 18.4605 9.65394C18.8859 9.45401 19.3126 9.2514 19.7439 9.0648ZM22.2674 7.49309C21.4009 7.44336 20.5424 7.68707 19.9054 7.92239C19.2293 8.17216 18.572 8.49692 17.9262 8.79999H14.4L16.9 6.30001C17.3518 5.81058 17.9311 5.50542 18.5473 5.38451C19.5678 5.18428 20.6894 5.48945 21.5 6.30002C21.7715 6.57154 21.9863 6.87796 22.1444 7.2047C22.1902 7.29925 22.2312 7.39549 22.2674 7.49309Z" fill="#212121"/>
</g>
<defs>
<clipPath id="clip0_18_33557">
<rect width="32" height="32" fill="white"/>
</clipPath>
</defs>
</svg>

<svg xmlns="http://www.w3.org/2000/svg" width="32" height="32" fill="none"><g clip-path="url(#a)"><path fill="#212121" d="M17 0c-2.382 0-4.723.88-6.439 2.71l-.745.746c-1.695.004-3.26.76-4.43 1.93a6.455 6.455 0 0 0-1.897 4.396l-.803.804A9.122 9.122 0 0 0 .504 20.04c.674 2.722 2.111 5.204 4.182 7.274 6.274 6.274 16.45 6.293 22.641-.013 6.148-6.261 6.285-16.318-.013-22.615C25.07 2.442 22.344.943 19.358.352A8.143 8.143 0 0 0 17 0Zm8.9 6.1c5.5 5.5 5.4 14.3 0 19.8s-14.3 5.5-19.8 0c-1.854-1.853-3.106-4.05-3.677-6.432A7.15 7.15 0 0 0 4.1 22.1c1.3 1.3 3.1 2.1 5 2.1s3.7-.7 5-2.1l7.9-7.9c1.3-1.3 2.1-3.1 2.1-5s-.7-3.7-2.1-5c-.915-.85-1.959-1.529-3.103-1.897L18.9 2.3c2.6.5 5 1.8 7 3.8ZM20 4.3l.14.14a4.165 4.165 0 0 0-2.957.385A4.731 4.731 0 0 0 16.1 4.7a4.694 4.694 0 0 0-4.662 4.1H10c-.7 0-1.2.5-1.2 1.2v1.438A4.694 4.694 0 0 0 4.7 16.1c0 .409.052.805.15 1.183a4.266 4.266 0 0 0-.269 2.995c-1.722-1.582-1.72-4.42-.281-6.178 1-1 1.4-2.3 1.2-3.7-.1-1.3.3-2.6 1.3-3.6s2.3-1.5 3.6-1.3c1.3.2 2.7-.2 3.7-1.1 1.564-1.564 4.26-1.45 5.9-.1ZM8.8 14.4v3.762c-.886 1.112-1.504 2.454-1.447 3.906A3.334 3.334 0 0 1 6.4 21.4c-.772-.713-1.086-1.743-.94-2.734A3.307 3.307 0 0 1 6.4 16.8l2.4-2.4Zm10.944-5.335c.846-.366 1.813-.694 2.747-.543.22 1.754-.563 3.45-1.781 4.668L13 20.9c-1.3 1.3-3 1.8-4.6 1.6a3.674 3.674 0 0 1-.021-.145C8.22 21.105 8.726 20.01 9.4 19c.9-1 1.3-2.3 1.1-3.7-.1-1.3.3-2.6 1.2-3.5 1-1 2.3-1.4 3.5-1.2.25.02.521-.004.8-.054.918-.167 1.914-.635 2.46-.892.426-.2.853-.403 1.284-.59Zm2.523-1.572c-.866-.05-1.725.194-2.362.43-.676.25-1.333.574-1.979.877H14.4l2.5-2.5a3.02 3.02 0 0 1 1.647-.915c1.02-.2 2.142.104 2.953.915a3.328 3.328 0 0 1 .767 1.193Z"/></g><defs><clipPath id="a"><path fill="#fff" d="M0 0h32v32H0z"/></clipPath></defs></svg>
